X: 27
M: 6/8
L: 1/8
K: A
|:\
d2B c2A | BcB E3 | F2=G A2G | FD2 D3 |\
d2B c2A | BcB E3 | G2A B2G | A3 A3 :|
|:\
Laurenson o' Fetlar tocht he wis a listening t\"un, and might o' hed
Yakki words.


